X:1
T:The Coming of the Lord
T:The Coming of the Lord
T:J. A. Wallace
T:E. Manville, 1898
T:Public Domain Courtesy of the Cyber Hymnal™
T:Public Domain Courtesy of the Cyber Hymnal™
C:J. A. Wallace
Z:Public Domain
Z:Courtesy of the Cyber Hymnal™
%%score ( 1 2 ) 3
L:1/8
Q:1/4=90
M:2/4
K:G
V:1 treble 
V:2 treble 
V:3 bass 
V:1
 D>[DG] | [GB]>[GB] [GB][GB] | [GB]<[GB] [FA][EG] | [EA][EG] [EG][CE] | [B,D]3 [DG] | %5
w: 1.~There’s~an aw-|* ful day of|trou- ble Such as|men have ne- ver|known, When|
w: 2.~How oft|* we’ve asked each|o- ther “I ~|won- der when He’ll|come; I|
w: 3.~It may|* be in the|even- ing, Or it|may be ear- ly|dawn, Or|
w: 4.~How aw-|* ful for the|wick- ed When that|day at last shall|come, And|
 [DG]>[DG] [EG]>[EG] | [DG]/ ([DG][DG]/) z [FA] | [GB][GB] [DA][EG] [FA]3 D | [GB]>[GB] [GB]>[GB] | %9
w: God shall call the|na- tions * To|judg- ment at His throne, And|when that day shall|
w: get so tir- ed|wai- ting, * I’m|sure it can’t be long: For|an- gels said He’d|
w: at the mid- night|hour when * The|Lord a- gain shall come; So|let us then be|
w: God shall call both|great and~small * To|meet the fi- nal doom, Then|to the rocks and|
 [GB]>[DA] [DG]>[DF] | [EA][EG] [EG][CE] | [B,D]3 [B,D] | [CE]>[DF] [EG][CE] | %13
w: come, the Saints will|lift their heads and|cry, For|Him we’ve long been|
w: come a- gain The|day He went on|high; And|Je- sus said, ‘Keep|
w: rea- dy all To|meet Him in the|sky, Like|faith- ful ser- vants|
w: mo- unt- ains They’ll|make a pit- eous|cry, To|hide them from His|
 [B,D]<[B,D] [Ec][Ec] | [DB]<[DB] [CA][CA] | !fermata![B,G]2 x2 |] x2 |] %17
w: wait- ing, But His|com- ing draw- eth|nigh.||
w: watch- ing, For My|com- ing draw- eth|nigh.’”||
w: wait- ing, For His|com- ing draw- eth|nigh.||
w: pre- sence; Lo, His|com- ing draw- eth|nigh.||
V:2
 D3/2- x/ | x4 | x4 | x4 | x4 | x4 | x4 | x7 D | x4 | x4 | x4 | x4 | x4 | x4 | x4 | x4 |] x2 |] %17
V:3
 ([G,B,]>[G,B,]) | [G,D]>[G,D] [G,D][G,D] | [G,D]<[G,D] [D,C][E,B,] | [C,C][C,C] [C,C][C,G,] | %4
 [G,,G,]3 [G,B,] | [G,B,]>[G,B,] [G,C]>[G,C] | [G,B,]/ ([G,B,][G,B,]/) z [D,D] | %7
 [G,D][G,D] [F,D][E,^C] x4 | [F,D]3 [G,B,] | [G,D]>[G,D] [G,D]>[G,D] | [G,D]>[G,C] [G,B,]>[G,A,] | %11
 [C,C][C,C] [C,C][C,G,] | [G,,G,]3 [G,,G,] | [C,G,]>[C,G,] [C,G,][C,G,] | %14
 [G,,G,]<[G,,G,] [C,G,][C,G,] | [D,G,]<[D,G,] [D,F,][D,F,] |] !fermata![G,,G,]2 |] %17

